icons/paintbrush-16.svg

<svg xmlns="http://www.w3.org/2000/svg" width="16" height="16" viewBox="0 0 16 16"><path d="M11.134 1.535c.7-.509 1.416-.942 2.076-1.155.649-.21 1.463-.267 2.069.34.603.601.568 1.411.368 2.07-.202.668-.624 1.39-1.125 2.096-1.011 1.424-2.496 2.987-3.775 4.249-1.098 1.084-2.132 1.839-3.04 2.3a3.744 3.744 0 01-1.055 3.217c-.431.431-1.065.691-1.657.861-.614.177-1.294.287-1.914.357A21.151 21.151 0 01.797 16H.743l.007-.75H.749L.742 16a.75.75 0 01-.743-.742l.743-.008-.742.007v-.054a21.25 21.25 0 01.13-2.284c.067-.647.187-1.287.358-1.914.17-.591.43-1.226.86-1.657a3.746 3.746 0 013.227-1.054c.466-.893 1.225-1.907 2.314-2.982 1.271-1.255 2.833-2.75 4.245-3.777zM1.62 13.089c-.051.464-.086.929-.104 1.395.466-.018.932-.053 1.396-.104a10.511 10.511 0 001.668-.309c.526-.151.856-.325 1.011-.48a2.25 2.25 0 10-3.182-3.182c-.155.155-.329.485-.48 1.01a10.515 10.515 0 00-.309 1.67zm10.396-10.34c-1.224.89-2.605 2.189-3.822 3.384l1.718 1.718c1.21-1.205 2.51-2.597 3.387-3.833.47-.662.78-1.227.912-1.662.134-.444.032-.551.009-.575h-.001V1.78c-.014-.014-.113-.113-.548.027-.432.14-.995.462-1.655.942zm-4.832 7.266l-.001.001a9.859 9.859 0 001.63-1.142L7.155 7.216a9.7 9.7 0 00-1.161 1.607c.482.302.889.71 1.19 1.192z"/></svg>

<svg xmlns="http://www.w3.org/2000/svg" width="16" height="16" viewBox="0 0 16 16">
  <defs/>
  <path d="M11.134,1.535 C11.834,1.026 12.55,0.593 13.21,0.38 C13.859,0.17 14.673,0.113 15.279,0.72 C15.882,1.321 15.847,2.131 15.647,2.79 C15.445,3.458 15.023,4.18 14.522,4.886 C13.511,6.31 12.026,7.873 10.747,9.135 C9.649,10.219 8.615,10.974 7.707,11.435 C7.888,12.614 7.496,13.809 6.652,14.652 C6.221,15.083 5.587,15.343 4.995,15.513 C4.381,15.69 3.701,15.8 3.081,15.87 C2.539,15.93 1.996,15.97 1.451,15.988 C1.233,15.997 1.015,16.001 0.797,16 L0.743,16 L0.75,15.25 L0.749,15.25 L0.742,16 C0.334,15.996 0.003,15.666 -0.001,15.258 L0.742,15.25 L0,15.257 L0,15.203 C0.002,14.44 0.046,13.677 0.13,12.919 C0.197,12.272 0.317,11.632 0.488,11.005 C0.658,10.414 0.918,9.779 1.348,9.348 C2.194,8.501 3.393,8.11 4.575,8.294 C5.041,7.401 5.8,6.387 6.889,5.312 C8.16,4.057 9.722,2.562 11.134,1.535 Z M1.62,13.089 C1.569,13.553 1.534,14.018 1.516,14.484 C1.982,14.466 2.448,14.431 2.912,14.38 C3.475,14.322 4.033,14.219 4.58,14.071 C5.106,13.92 5.436,13.746 5.591,13.591 C6.47,12.712 6.47,11.288 5.591,10.409 C4.712,9.53 3.288,9.53 2.409,10.409 C2.254,10.564 2.08,10.894 1.929,11.419 C1.781,11.966 1.678,12.525 1.62,13.089 Z M12.016,2.749 C10.792,3.639 9.411,4.938 8.194,6.133 L9.912,7.851 C11.122,6.646 12.422,5.254 13.299,4.018 C13.769,3.356 14.079,2.791 14.211,2.356 C14.345,1.912 14.243,1.805 14.22,1.781 L14.219,1.781 L14.219,1.78 L14.219,1.78 C14.205,1.766 14.106,1.667 13.671,1.807 C13.239,1.947 12.676,2.269 12.016,2.749 Z M7.184,10.015 L7.183,10.016 C7.763,9.691 8.31,9.309 8.813,8.874 L7.155,7.216 C6.714,7.711 6.325,8.249 5.994,8.823 C6.476,9.125 6.883,9.533 7.184,10.015 Z"/>
</svg>
